src/assets/logo.svg

<svg height="258" viewBox="0 0 258 258" width="258" xmlns="http://www.w3.org/2000/svg"><g fill="#fff" fill-rule="evenodd" transform="translate(18 39.741803)"><path d="m155.878763 109.234443c38.947197 5.759671 66.121237 18.786246 66.121237 33.93359 0 20.484332-49.696393 37.090164-111 37.090164-61.3036072 0-111-16.605832-111-37.090164 0-15.147344 27.1740399-28.173919 66.121237-33.93359 13.3773218 2.720475 28.655427 4.261459 44.878763 4.261459 15.816331 0 30.734263-1.464635 43.869366-4.057138z"/><path d="m139.092748 48.2491027c35.274754 3.9277533 60.707252 15.0497686 60.707252 28.156635 0 16.3874655-39.757114 29.6721313-88.8 29.6721313-49.0428858 0-88.8-13.2846658-88.8-29.6721313 0-13.1068664 25.4324978-24.2288817 60.7072522-28.156635 8.6400966 1.4129264 18.1318998 2.1935203 28.0927478 2.1935203 9.612406 0 18.788009-.726937 27.182799-2.0470944z"/><ellipse cx="111" cy="22.254098" rx="66.6" ry="22.254098"/></g></svg>

<?xml version="1.0" encoding="UTF-8"?>
<svg width="258px" height="258px" viewBox="0 0 258 258" version="1.1" xmlns="http://www.w3.org/2000/svg" xmlns:xlink="http://www.w3.org/1999/xlink">
    <!-- Generator: Sketch 57.1 (83088) - https://sketch.com -->
    <title>pebbles-pad</title>
    <desc>Created with Sketch.</desc>
    <g id="Spread" stroke="none" stroke-width="1" fill="none" fill-rule="evenodd">
        <g id="pebbles-pad" transform="translate(1.000000, 1.000000)" fill="#FFFFFF">
            <g id="pebbles" transform="translate(17.000000, 38.000000)">
                <g transform="translate(0.000000, 0.741803)">
                    <path d="M155.878763,109.234443 C194.82596,114.994114 222,128.020689 222,143.168033 C222,163.652365 172.303607,180.258197 111,180.258197 C49.6963928,180.258197 0,163.652365 0,143.168033 C0,128.020689 27.1740399,114.994114 66.121237,109.234443 C79.4985588,111.954918 94.776664,113.495902 111,113.495902 C126.816331,113.495902 141.734263,112.031267 154.869366,109.438764 Z" id="peb-bot"></path>
                    <path d="M139.092748,48.2491027 C174.367502,52.176856 199.8,63.2988713 199.8,76.4057377 C199.8,92.7932032 160.042886,106.077869 111,106.077869 C61.9571142,106.077869 22.2,92.7932032 22.2,76.4057377 C22.2,63.2988713 47.6324978,52.176856 82.9072522,48.2491027 C91.5473488,49.6620291 101.039152,50.442623 111,50.442623 C120.612406,50.442623 129.788009,49.715686 138.182799,48.3955286 Z" id="peb-med"></path>
                    <g id="peb-top" transform="translate(44.400000, 0.000000)">
                        <ellipse id="peb-sm" cx="66.6" cy="22.2540984" rx="66.6" ry="22.2540984"></ellipse>
                    </g>
                </g>
            </g>
        </g>
    </g>
</svg>
